svgs/light/badge.svg

<svg xmlns="http://www.w3.org/2000/svg" viewBox="0 0 512 512"><!--! Font Awesome Pro 6.0.0-alpha3 by @fontawesome - https://fontawesome.com License - https://fontawesome.com/license (Commercial License) --><path d="M256 512c-35.5 0-68.12-19.38-85.5-49.63C138.4 471.1 101.5 463.5 75 437c-25.12-25.12-34.5-61.88-25.38-95.5C19.38 324.2 0 291.5 0 256s19.38-68.25 49.62-85.5C40.5 136.9 49.88 100.1 75 75s61.88-34.5 95.5-25.38C187.8 19.38 220.5 0 256 0s68.25 19.38 85.5 49.62c33.63-9.125 70.38 .25 95.5 25.38s34.5 61.88 25.38 95.5C492.6 187.8 512 220.5 512 256s-19.38 68.25-49.63 85.5c9.125 33.63-.25 70.38-25.38 95.5c-26.12 26.12-62.75 34.25-95.5 25.38C324.1 492.6 291.5 512 256 512zM187.8 420.9C191.2 430.5 203.9 480 256 480c51 0 63.75-47 68.25-59.13c32.63 14.88 61.25 22.37 90.13-6.5c36-36 11.87-78.25 6.5-90.13C430.5 320.8 480 308.1 480 256c0-51-47-63.75-59.13-68.25c4.375-9.625 30.38-53.5-6.5-90.13c-36-36-78.25-11.87-90.13-6.5C320.8 81.5 308.1 32 256 32C205 32 192.2 79 187.8 91.12C178.4 86.88 134.4 60.75 97.62 97.62C61.62 133.6 85.75 175.9 91.12 187.8C81.5 191.2 32 203.9 32 256c0 51 47 63.75 59.12 68.25c-4.375 9.625-30.37 53.5 6.5 90.13C126.4 443.1 155.1 435.8 187.8 420.9z"/></svg>

<svg xmlns="http://www.w3.org/2000/svg" viewBox="0 0 512 512"><path d="M256 512c-35.5 0-68.1-19.4-85.5-49.6-32.1 8.7-69 1.1-95.5-25.4-25.1-25.1-34.5-61.9-25.4-95.5C19.4 324.2 0 291.5 0 256s19.4-68.2 49.6-85.5c-9.1-33.6.3-70.4 25.4-95.5 25.1-25.1 61.9-34.5 95.5-25.4C187.8 19.4 220.5 0 256 0s68.2 19.4 85.5 49.6c33.6-9.1 70.4.3 95.5 25.4 25.1 25.1 34.5 61.9 25.4 95.5 30.2 17.3 49.6 50 49.6 85.5s-19.4 68.2-49.6 85.5c9.1 33.6-.3 70.4-25.4 95.5-26.1 26.1-62.8 34.3-95.5 25.4-17.4 30.2-50 49.6-85.5 49.6zm-68.3-91.1c3.6 9.6 16.2 59.1 68.3 59.1 51 0 63.7-47 68.3-59.1 32.6 14.8 61.2 22.4 90.1-6.5 36-36 11.8-78.3 6.5-90.1 9.6-3.6 59.1-16.2 59.1-68.3 0-51-47-63.7-59.1-68.3 4.4-9.6 30.3-53.4-6.5-90.1-36-36-78.3-11.8-90.1-6.5C320.7 81.5 308.1 32 256 32c-51 0-63.7 47-68.3 59.1-9.3-4.2-53.3-30.4-90.1 6.5-36 36-11.8 78.3-6.5 90.1C81.5 191.3 32 203.9 32 256c0 51 47 63.7 59.1 68.3-4.4 9.6-30.3 53.4 6.5 90.1 28.8 28.7 57.5 21.3 90.1 6.5z"/></svg>
